(G-CODE GENERATED BY FLATCAM v8.908 - www.flatcam.org - Version Date: 2019/02/9)

(Name: PiKwonDoHAT-F.Cu.gbr_iso_cnc)
(Type: G-code from Geometry)
(Units: MM)

(Created on Thursday, 14 February 2019 at 07:21)

(TOOL DIAMETER: 0.3 mm)
(Feedrate: 275.0 mm/min)
(Feedrate_Z: 75.0 mm/min)
(Feedrate rapids 400.0 mm/min)

(Z_Cut: -0.1 mm)
(Z_Move: 0.5 mm)
(Z Toolchange: 1.0 mm)
(X,Y Toolchange: 0.0000, 0.0000 mm)
(Z Start: None mm)
(Z End: 2.0 mm)
(Steps per circle: 64)
(Postprocessor Geometry: default)

(X range:    0.2449 ...   54.7551  mm)
(Y range:    0.2449 ...   62.7471  mm)

(Spindle Speed: None RPM)

G21
G90
G94

G01 F275.00
G00 Z0.5000

M03
G00 X9.3501 Y7.4356
G01 F75.00
G01 Z-0.1000
G01 F275.00
G01 X9.3521 Y7.4024
G01 X9.3536 Y7.3909
G01 X9.3614 Y7.3489
G01 X9.3698 Y7.3199
G01 X9.3746 Y7.3057
G01 X9.3861 Y7.2781
G01 X9.3934 Y7.2629
G01 X9.4069 Y7.2384
G01 X9.4159 Y7.2241
G01 X9.4360 Y7.1960
G01 X9.4671 Y7.1611
G01 X10.4252 Y6.2033
G01 X10.4540 Y6.1780
G01 X10.4821 Y6.1579
G01 X10.4917 Y6.1516
G01 X10.5209 Y6.1354
G01 X10.5361 Y6.1281
G01 X10.5637 Y6.1166
G01 X10.5779 Y6.1118
G01 X10.6069 Y6.1034
G01 X10.6212 Y6.1003
G01 X10.6604 Y6.0941
G01 X10.7020 Y6.0919
G01 X17.0379 Y6.0921
G01 X17.0711 Y6.0941
G01 X17.1103 Y6.1003
G01 X17.1246 Y6.1034
G01 X17.1536 Y6.1118
G01 X17.1678 Y6.1166
G01 X17.1954 Y6.1281
G01 X17.2106 Y6.1354
G01 X17.2397 Y6.1516
G01 X17.2494 Y6.1579
G01 X17.2775 Y6.1780
G01 X17.3124 Y6.2091
G01 X17.4974 Y6.3940
G01 X17.5070 Y6.3684
G01 X17.5204 Y6.3401
G01 X17.5423 Y6.3029
G01 X17.5613 Y6.2770
G01 X17.5871 Y6.2475
G01 X17.5975 Y6.2371
G01 X17.6188 Y6.2179
G01 X17.6468 Y6.1967
G01 X17.6590 Y6.1885
G01 X17.6930 Y6.1689
G01 X17.7184 Y6.1570
G01 X17.7593 Y6.1421
G01 X17.7898 Y6.1343
G01 X17.8042 Y6.1314
G01 X17.8356 Y6.1269
G01 X17.8676 Y6.1252
G01 X19.1250 Y6.1250
G01 X19.1569 Y6.1264
G01 X19.1715 Y6.1278
G01 X19.2102 Y6.1343
G01 X19.2407 Y6.1421
G01 X19.2712 Y6.1528
G01 X19.2816 Y6.1570
G01 X19.3099 Y6.1704
G01 X19.3471 Y6.1923
G01 X19.3730 Y6.2113
G01 X19.3843 Y6.2206
G01 X19.4078 Y6.2422
G01 X19.4294 Y6.2657
G01 X19.4387 Y6.2770
G01 X19.4577 Y6.3029
G01 X19.4781 Y6.3372
G01 X20.8500 Y6.3372
G01 X20.8500 Y6.1420
G01 X20.8508 Y6.1263
G01 X20.8533 Y6.1109
G01 X20.8573 Y6.0957
G01 X20.8629 Y6.0811
G01 X20.8701 Y6.0671
G01 X20.8786 Y6.0539
G01 X20.8885 Y6.0416
G01 X20.8996 Y6.0305
G01 X20.9119 Y6.0206
G01 X20.9251 Y6.0121
G01 X20.9391 Y6.0049
G01 X20.9537 Y5.9993
G01 X20.9689 Y5.9953
G01 X20.9843 Y5.9928
G01 X21.0000 Y5.9920
G01 X23.0000 Y5.9920
G01 X23.0157 Y5.9928
G01 X23.0311 Y5.9953
G01 X23.0463 Y5.9993
G01 X23.0609 Y6.0049
G01 X23.0749 Y6.0121
G01 X23.0881 Y6.0206
G01 X23.1004 Y6.0305
G01 X23.1115 Y6.0416
G01 X23.1214 Y6.0539
G01 X23.1299 Y6.0671
G01 X23.1371 Y6.0811
G01 X23.1427 Y6.0957
G01 X23.1467 Y6.1109
G01 X23.1492 Y6.1263
G01 X23.1500 Y6.1420
G01 X23.1500 Y7.8420
G01 X23.1492 Y7.8577
G01 X23.1467 Y7.8731
G01 X23.1427 Y7.8883
G01 X23.1371 Y7.9029
G01 X23.1299 Y7.9169
G01 X23.1214 Y7.9301
G01 X23.1115 Y7.9424
G01 X23.1004 Y7.9535
G01 X23.0881 Y7.9634
G01 X23.0749 Y7.9719
G01 X23.0609 Y7.9791
G01 X23.0463 Y7.9847
G01 X23.0311 Y7.9887
G01 X23.0157 Y7.9912
G01 X23.0000 Y7.9920
G01 X21.0000 Y7.9920
G01 X20.9843 Y7.9912
G01 X20.9689 Y7.9887
G01 X20.9537 Y7.9847
G01 X20.9391 Y7.9791
G01 X20.9251 Y7.9719
G01 X20.9119 Y7.9634
G01 X20.8996 Y7.9535
G01 X20.8885 Y7.9424
G01 X20.8786 Y7.9301
G01 X20.8701 Y7.9169
G01 X20.8629 Y7.9029
G01 X20.8573 Y7.8883
G01 X20.8533 Y7.8731
G01 X20.8508 Y7.8577
G01 X20.8500 Y7.8420
G01 X20.8500 Y7.6378
G01 X19.4781 Y7.6378
G01 X19.4577 Y7.6721
G01 X19.4387 Y7.6980
G01 X19.4294 Y7.7093
G01 X19.4078 Y7.7328
G01 X19.3843 Y7.7544
G01 X19.3730 Y7.7637
G01 X19.3471 Y7.7827
G01 X19.3200 Y7.7991
G01 X19.3070 Y7.8061
G01 X19.2816 Y7.8180
G01 X19.2481 Y7.8305
G01 X19.2063 Y7.8416
G01 X19.1715 Y7.8472
G01 X19.1569 Y7.8486
G01 X19.1250 Y7.8500
G01 X17.8750 Y7.8500
G01 X17.8356 Y7.8481
G01 X17.8042 Y7.8436
G01 X17.7898 Y7.8407
G01 X17.7593 Y7.8329
G01 X17.7184 Y7.8180
G01 X17.6901 Y7.8046
G01 X17.6529 Y7.7827
G01 X17.6188 Y7.7571
G01 X17.5922 Y7.7328
G01 X17.5679 Y7.7062
G01 X17.5467 Y7.6782
G01 X17.5259 Y7.6450
G01 X17.5204 Y7.6349
G01 X17.5070 Y7.6066
G01 X17.4921 Y7.5657
G01 X17.4843 Y7.5352
G01 X17.4814 Y7.5208
G01 X17.4764 Y7.4819
G01 X17.4750 Y7.4500
G01 X17.4750 Y7.3843
G01 X17.4442 Y7.3792
G01 X17.4278 Y7.3755
G01 X17.3867 Y7.3629
G01 X17.3591 Y7.3514
G01 X17.3439 Y7.3441
G01 X17.3148 Y7.3279
G01 X17.2770 Y7.3015
G01 X17.2421 Y7.2704
G01 X16.8638 Y6.8921
G01 X10.8677 Y6.8921
G01 X10.1501 Y7.6097
G01 X10.1501 Y8.9563
G01 X10.9828 Y9.7889
G01 X11.1658 Y9.9711
G01 X11.2514 Y9.9463
G01 X11.2658 Y9.9432
G01 X11.3498 Y9.9289
G01 X11.3665 Y9.9270
G01 X11.4600 Y9.9220
G01 X11.5587 Y9.9274
G01 X11.6542 Y9.9432
G01 X11.6686 Y9.9463
G01 X11.7525 Y9.9705
G01 X11.7684 Y9.9761
G01 X11.8472 Y10.0087
G01 X11.8623 Y10.0160
G01 X11.9369 Y10.0572
G01 X11.9511 Y10.0662
G01 X12.0207 Y10.1155
G01 X12.0338 Y10.1260
G01 X12.1035 Y10.1885
G01 X12.1726 Y10.2661
G01 X12.2321 Y10.3505
G01 X12.2760 Y10.4297
G01 X12.2833 Y10.4448
G01 X12.3166 Y10.5253
G01 X12.3215 Y10.5395
G01 X12.3457 Y10.6234
G01 X12.3488 Y10.6378
G01 X12.3646 Y10.7333
G01 X12.3700 Y10.8320
G01 X12.3646 Y10.9307
G01 X12.3488 Y11.0262
G01 X12.3457 Y11.0406
G01 X12.3215 Y11.1245
G01 X12.3166 Y11.1387
G01 X12.2833 Y11.2192
G01 X12.2760 Y11.2343
G01 X12.2321 Y11.3135
G01 X12.1765 Y11.3927
G01 X12.1660 Y11.4058
G01 X12.1035 Y11.4755
G01 X12.0338 Y11.5380
G01 X12.0207 Y11.5485
G01 X11.9511 Y11.5978
G01 X11.9369 Y11.6068
G01 X11.8623 Y11.6480
G01 X11.8472 Y11.6553
G01 X11.7667 Y11.6886
G01 X11.7525 Y11.6935
G01 X11.6686 Y11.7177
G01 X11.6542 Y11.7208
G01 X11.5587 Y11.7366
G01 X11.4600 Y11.7420
G01 X11.3613 Y11.7366
G01 X11.2658 Y11.7208
G01 X11.2514 Y11.7177
G01 X11.1675 Y11.6935
G01 X11.1516 Y11.6879
G01 X11.0728 Y11.6553
G01 X11.0577 Y11.6480
G01 X10.9831 Y11.6068
G01 X10.9689 Y11.5978
G01 X10.8993 Y11.5485
G01 X10.8862 Y11.5380
G01 X10.8165 Y11.4755
G01 X10.7540 Y11.4058
G01 X10.7435 Y11.3927
G01 X10.6879 Y11.3135
G01 X10.6440 Y11.2343
G01 X10.6367 Y11.2192
G01 X10.6034 Y11.1387
G01 X10.5985 Y11.1245
G01 X10.5749 Y11.0426
G01 X10.5712 Y11.0262
G01 X10.5554 Y10.9307
G01 X10.5502 Y10.8404
G01 X10.5502 Y10.8236
G01 X10.5550 Y10.7385
G01 X10.5569 Y10.7218
G01 X10.5712 Y10.6378
G01 X10.5743 Y10.6234
G01 X10.5993 Y10.5372
G01 X9.4671 Y9.4049
G01 X9.4426 Y9.3779
G01 X9.4321 Y9.3648
G01 X9.4096 Y9.3322
G01 X9.3934 Y9.3031
G01 X9.3861 Y9.2879
G01 X9.3746 Y9.2603
G01 X9.3698 Y9.2461
G01 X9.3614 Y9.2171
G01 X9.3583 Y9.2028
G01 X9.3521 Y9.1636
G01 X9.3499 Y9.1220
G01 X9.3501 Y7.4356
G00 Z0.5000
G00 X13.1768 Y9.9491
G01 F75.00
G01 Z-0.1000
G01 F275.00
G01 X13.1434 Y9.8687
G01 X13.1385 Y9.8545
G01 X13.1143 Y9.7706
G01 X13.1112 Y9.7562
G01 X13.0954 Y9.6607
G01 X13.0902 Y9.5704
G01 X13.0902 Y9.5536
G01 X13.0950 Y9.4685
G01 X13.0969 Y9.4518
G01 X13.1112 Y9.3678
G01 X13.1143 Y9.3534
G01 X13.1385 Y9.2695
G01 X13.1434 Y9.2553
G01 X13.1767 Y9.1748
G01 X13.1840 Y9.1597
G01 X13.2279 Y9.0805
G01 X13.2874 Y8.9961
G01 X13.3565 Y8.9185
G01 X13.4341 Y8.8494
G01 X13.5089 Y8.7962
G01 X13.5231 Y8.7872
G01 X13.5977 Y8.7460
G01 X13.6128 Y8.7387
G01 X13.6933 Y8.7054
G01 X13.7075 Y8.7005
G01 X13.7894 Y8.6769
G01 X13.8058 Y8.6732
G01 X13.9013 Y8.6574
G01 X14.0000 Y8.6520
G01 X14.0987 Y8.6574
G01 X14.1942 Y8.6732
G01 X14.2106 Y8.6769
G01 X14.2925 Y8.7005
G01 X14.3067 Y8.7054
G01 X14.3872 Y8.7387
G01 X14.4023 Y8.7460
G01 X14.4815 Y8.7899
G01 X14.5659 Y8.8494
G01 X14.6374 Y8.9128
G01 X14.6492 Y8.9246
G01 X14.7060 Y8.9882
G01 X14.7165 Y9.0013
G01 X14.7721 Y9.0805
G01 X14.8017 Y9.1337
G01 X18.1240 Y9.1337
G01 X18.1936 Y9.1375
G01 X18.2604 Y9.1484
G01 X18.2748 Y9.1516
G01 X18.3307 Y9.1677
G01 X18.3449 Y9.1726
G01 X18.3985 Y9.1947
G01 X18.4136 Y9.2020
G01 X18.4673 Y9.2318
G01 X18.5227 Y9.2706
G01 X18.5359 Y9.2810
G01 X18.5838 Y9.3242
G01 X19.2893 Y10.0297
G01 X20.8500 Y10.0297
G01 X20.8500 Y9.8300
G01 X20.8508 Y9.8143
G01 X20.8533 Y9.7989
G01 X20.8573 Y9.7837
G01 X20.8629 Y9.7691
G01 X20.8701 Y9.7551
G01 X20.8786 Y9.7419
G01 X20.8885 Y9.7296
G01 X20.8996 Y9.7185
G01 X20.9119 Y9.7086
G01 X20.9251 Y9.7001
G01 X20.9391 Y9.6929
G01 X20.9537 Y9.6873
G01 X20.9689 Y9.6833
G01 X20.9843 Y9.6808
G01 X21.0000 Y9.6800
G01 X23.0000 Y9.6800
G01 X23.0157 Y9.6808
G01 X23.0311 Y9.6833
G01 X23.0463 Y9.6873
G01 X23.0609 Y9.6929
G01 X23.0749 Y9.7001
G01 X23.0881 Y9.7086
G01 X23.1004 Y9.7185
G01 X23.1115 Y9.7296
G01 X23.1214 Y9.7419
G01 X23.1299 Y9.7551
G01 X23.1371 Y9.7691
G01 X23.1427 Y9.7837
G01 X23.1467 Y9.7989
G01 X23.1492 Y9.8143
G01 X23.1500 Y9.8300
G01 X23.1500 Y11.5300
G01 X23.1492 Y11.5457
G01 X23.1467 Y11.5611
G01 X23.1427 Y11.5763
G01 X23.1371 Y11.5909
G01 X23.1299 Y11.6049
G01 X23.1214 Y11.6181
G01 X23.1115 Y11.6304
G01 X23.1004 Y11.6415
G01 X23.0881 Y11.6514
G01 X23.0749 Y11.6599
G01 X23.0609 Y11.6671
G01 X23.0463 Y11.6727
G01 X23.0311 Y11.6767
G01 X23.0157 Y11.6792
G01 X23.0000 Y11.6800
G01 X21.0000 Y11.6800
G01 X20.9843 Y11.6792
G01 X20.9689 Y11.6767
G01 X20.9537 Y11.6727
G01 X20.9391 Y11.6671
G01 X20.9251 Y11.6599
G01 X20.9119 Y11.6514
G01 X20.8996 Y11.6415
G01 X20.8885 Y11.6304
G01 X20.8786 Y11.6181
G01 X20.8701 Y11.6049
G01 X20.8629 Y11.5909
G01 X20.8573 Y11.5763
G01 X20.8533 Y11.5611
G01 X20.8508 Y11.5457
G01 X20.8500 Y11.5300
G01 X20.8500 Y11.3303
G01 X19.0200 Y11.3303
G01 X18.9504 Y11.3265
G01 X18.8836 Y11.3156
G01 X18.8672 Y11.3118
G01 X18.8133 Y11.2963
G01 X18.7991 Y11.2914
G01 X18.7455 Y11.2693
G01 X18.7304 Y11.2620
G01 X18.6767 Y11.2322
G01 X18.6160 Y11.1895
G01 X18.5663 Y11.1456
G01 X17.8547 Y10.4343
G01 X14.2552 Y10.4343
G01 X14.2086 Y10.4477
G01 X14.1942 Y10.4508
G01 X14.0987 Y10.4666
G01 X14.0000 Y10.4720
G01 X13.9013 Y10.4666
G01 X13.8058 Y10.4508
G01 X13.7914 Y10.4477
G01 X13.7075 Y10.4235
G01 X13.6916 Y10.4179
G01 X13.6128 Y10.3853
G01 X13.5977 Y10.3780
G01 X13.5185 Y10.3341
G01 X13.4393 Y10.2785
G01 X13.4262 Y10.2680
G01 X13.3565 Y10.2055
G01 X13.2874 Y10.1279
G01 X13.2279 Y10.0435
G01 X13.1840 Y9.9643
G01 X13.1768 Y9.9491
G00 Z0.5000
G00 X14.0000 Y10.9691
G01 F75.00
G01 Z-0.1000
G01 F275.00
G01 X14.0128 Y10.9936
G01 X14.0248 Y11.0126
G01 X14.0334 Y11.0249
G01 X14.0485 Y11.0439
G01 X14.0597 Y11.0564
G01 X14.0756 Y11.0723
G01 X14.0881 Y11.0835
G01 X14.1056 Y11.0975
G01 X14.1194 Y11.1072
G01 X14.1384 Y11.1191
G01 X14.1511 Y11.1263
G01 X14.1810 Y11.1405
G01 X14.5267 Y11.2837
G01 X14.7883 Y11.5453
G01 X14.9299 Y11.8870
G01 X14.9299 Y12.1415
G01 X14.9318 Y12.1775
G01 X14.9370 Y12.2112
G01 X14.9402 Y12.2255
G01 X14.9470 Y12.2491
G01 X14.9525 Y12.2650
G01 X14.9611 Y12.2857
G01 X14.9684 Y12.3009
G01 X14.9819 Y12.3251
G01 X15.0012 Y12.3531
G01 X15.0117 Y12.3662
G01 X15.0267 Y12.3829
G01 X15.2799 Y12.6362
G01 X15.2966 Y12.6511
G01 X15.3097 Y12.6616
G01 X15.3377 Y12.6809
G01 X15.3619 Y12.6944
G01 X15.3771 Y12.7017
G01 X15.3995 Y12.7110
G01 X15.4373 Y12.7226
G01 X15.4517 Y12.7258
G01 X15.4853 Y12.7310
G01 X15.5213 Y12.7329
G01 X16.7285 Y12.7329
G01 X16.9250 Y12.7720
G01 X17.1115 Y12.8966
G01 X17.1433 Y12.9155
G01 X17.1550 Y12.9212
G01 X17.1854 Y12.9342
G01 X17.2157 Y12.9436
G01 X17.2324 Y12.9477
G01 X17.2578 Y12.9522
G01 X17.2736 Y12.9540
G01 X17.3060 Y12.9556
G01 X18.5660 Y12.9556
G01 X18.5960 Y12.9542
G01 X18.6123 Y12.9524
G01 X18.6488 Y12.9456
G01 X18.6708 Y12.9394
G01 X18.6862 Y12.9342
G01 X18.7065 Y12.9261
G01 X18.7177 Y12.9210
G01 X18.7427 Y12.9077
G01 X18.7725 Y12.8881
G01 X18.7855 Y12.8781
G01 X18.8021 Y12.8639
G01 X18.8105 Y12.8561
G01 X18.8322 Y12.8329
G01 X18.8524 Y12.8067
G01 X18.8775 Y12.7695
G01 X18.9337 Y12.7320
G01 X19.0345 Y12.7119
G01 X20.9655 Y12.7119
G01 X21.0663 Y12.7320
G01 X21.1225 Y12.7695
G01 X21.1600 Y12.8257
G01 X21.1801 Y12.9265
G01 X21.1801 Y14.5575
G01 X21.1600 Y14.6583
G01 X21.1225 Y14.7145
G01 X21.0663 Y14.7520
G01 X20.9655 Y14.7721
G01 X19.0345 Y14.7721
G01 X18.9337 Y14.7520
G01 X18.8775 Y14.7145
G01 X18.8400 Y14.6583
G01 X18.8238 Y14.5770
G01 X18.8162 Y14.5467
G01 X18.8109 Y14.5303
G01 X18.8020 Y14.5072
G01 X18.7956 Y14.4933
G01 X18.7807 Y14.4655
G01 X18.7576 Y14.4316
G01 X18.7364 Y14.4067
G01 X18.7090 Y14.3805
G01 X18.6958 Y14.3696
G01 X18.6661 Y14.3487
G01 X18.6360 Y14.3319
G01 X18.5991 Y14.3161
G01 X18.5654 Y14.3059
G01 X18.5515 Y14.3028
G01 X18.5169 Y14.2973
G01 X18.4890 Y14.2956
G01 X17.3060 Y14.2954
G01 X17.2736 Y14.2970
G01 X17.2578 Y14.2988
G01 X17.2324 Y14.3033
G01 X17.2157 Y14.3074
G01 X17.1932 Y14.3142
G01 X17.1766 Y14.3203
G01 X17.1433 Y14.3355
G01 X17.1115 Y14.3544
G01 X16.9250 Y14.4790
G01 X16.7285 Y14.5181
G01 X15.5475 Y14.5181
G01 X15.3510 Y14.4790
G01 X15.2133 Y14.3870
G01 X15.1973 Y14.3656
G01 X15.1725 Y14.3383
G01 X15.1622 Y14.3285
G01 X15.1384 Y14.3085
G01 X14.8385 Y14.1085
G01 X14.8203 Y14.0812
G01 X14.8044 Y14.0594
G01 X14.7950 Y14.0480
G01 X14.7768 Y14.0282
G01 X13.7541 Y13.0055
G01 X13.7311 Y12.9845
G01 X13.7010 Y12.9619
G01 X13.6780 Y12.9480
G01 X13.6650 Y12.9410
G01 X13.6406 Y12.9296
G01 X13.4733 Y12.8603
G01 X13.2117 Y12.5987
G01 X13.0801 Y12.2812
G01 X13.0801 Y11.8628
G01 X13.2117 Y11.5453
G01 X13.4733 Y11.2837
G01 X13.8190 Y11.1405
G01 X13.8489 Y11.1263
G01 X13.8616 Y11.1191
G01 X13.8929 Y11.0986
G01 X13.9119 Y11.0835
G01 X13.9244 Y11.0723
G01 X13.9403 Y11.0564
G01 X13.9515 Y11.0439
G01 X13.9666 Y11.0249
G01 X13.9752 Y11.0126
G01 X13.9872 Y10.9936
G01 X14.0000 Y10.9691
G00 Z0.5000
G00 X13.1768 Y12.4591
G01 F75.00
G01 Z-0.1000
G01 F275.00
G01 X13.1434 Y12.3787
G01 X13.1385 Y12.3645
G01 X13.1143 Y12.2806
G01 X13.1112 Y12.2662
G01 X13.0954 Y12.1707
G01 X13.0902 Y12.0804
G01 X13.0902 Y12.0636
G01 X13.0950 Y11.9785
G01 X13.0969 Y11.9618
G01 X13.1112 Y11.8778
G01 X13.1143 Y11.8634
G01 X13.1385 Y11.7795
G01 X13.1434 Y11.7653
G01 X13.1767 Y11.6848
G01 X13.1840 Y11.6697
G01 X13.2279 Y11.5905
G01 X13.2874 Y11.5061
G01 X13.3508 Y11.4346
G01 X13.3626 Y11.4228
G01 X13.4341 Y11.3594
G01 X13.5089 Y11.3062
G01 X13.5231 Y11.2972
G01 X13.5977 Y11.2560
G01 X13.6128 Y11.2487
G01 X13.6933 Y11.2154
G01 X13.7075 Y11.2105
G01 X13.7914 Y11.1863
G01 X13.8058 Y11.1832
G01 X13.9013 Y11.1674
G01 X13.9916 Y11.1622
G01 X14.0084 Y11.1622
G01 X14.0987 Y11.1674
G01 X14.1942 Y11.1832
G01 X14.2086 Y11.1863
G01 X14.2925 Y11.2105
G01 X14.3067 Y11.2154
G01 X14.3872 Y11.2487
G01 X14.4023 Y11.2560
G01 X14.4815 Y11.2999
G01 X14.5659 Y11.3594
G01 X14.6435 Y11.4285
G01 X14.7060 Y11.4982
G01 X14.7165 Y11.5113
G01 X14.7721 Y11.5905
G01 X14.8160 Y11.6697
G01 X14.8233 Y11.6848
G01 X14.8566 Y11.7653
G01 X14.8615 Y11.7795
G01 X14.8857 Y11.8634
G01 X14.8888 Y11.8778
G01 X14.9046 Y11.9733
G01 X14.9100 Y12.0720
G01 X14.9046 Y12.1707
G01 X14.8876 Y12.2720
G01 X15.3961 Y12.7805
G01 X15.4278 Y12.7723
G01 X15.4422 Y12.7694
G01 X15.4736 Y12.7649
G01 X15.5130 Y12.7630
G01 X16.7630 Y12.7630
G01 X16.8024 Y12.7649
G01 X16.8338 Y12.7694
G01 X16.8482 Y12.7723
G01 X16.8787 Y12.7801
G01 X16.9092 Y12.7908
G01 X16.9196 Y12.7950
G01 X16.9479 Y12.8084
G01 X16.9851 Y12.8303
G01 X17.0110 Y12.8493
G01 X17.0223 Y12.8586
G01 X17.0458 Y12.8802
G01 X17.0674 Y12.9037
G01 X17.0767 Y12.9150
G01 X17.0957 Y12.9409
G01 X17.1161 Y12.9752
G01 X18.8500 Y12.9752
G01 X18.8500 Y12.8920
G01 X18.8508 Y12.8763
G01 X18.8533 Y12.8609
G01 X18.8573 Y12.8457
G01 X18.8629 Y12.8311
G01 X18.8701 Y12.8171
G01 X18.8786 Y12.8039
G01 X18.8885 Y12.7916
G01 X18.8996 Y12.7805
G01 X18.9119 Y12.7706
G01 X18.9251 Y12.7621
G01 X18.9391 Y12.7549
G01 X18.9537 Y12.7493
G01 X18.9689 Y12.7453
G01 X18.9843 Y12.7428
G01 X19.0000 Y12.7420
G01 X21.0000 Y12.7420
G01 X21.0157 Y12.7428
G01 X21.0311 Y12.7453
G01 X21.0463 Y12.7493
G01 X21.0609 Y12.7549
G01 X21.0749 Y12.7621
G01 X21.0881 Y12.7706
G01 X21.1004 Y12.7805
G01 X21.1115 Y12.7916
G01 X21.1214 Y12.8039
G01 X21.1299 Y12.8171
G01 X21.1371 Y12.8311
G01 X21.1427 Y12.8457
G01 X21.1467 Y12.8609
G01 X21.1492 Y12.8763
G01 X21.1500 Y12.8920
G01 X21.1500 Y14.5920
G01 X21.1492 Y14.6077
G01 X21.1467 Y14.6231
G01 X21.1427 Y14.6383
G01 X21.1371 Y14.6529
G01 X21.1299 Y14.6669
G01 X21.1214 Y14.6801
G01 X21.1115 Y14.6924
G01 X21.1004 Y14.7035
G01 X21.0881 Y14.7134
G01 X21.0749 Y14.7219
G01 X21.0609 Y14.7291
G01 X21.0463 Y14.7347
G01 X21.0311 Y14.7387
G01 X21.0157 Y14.7412
